X:630
T:Arkansas Traveller
M:4/4
L:1/8
K:A
P:A
E|"A"AcBA "D"F2F2|"E7"E2E2 "A"A3A|"E"B2B2 "A"c2c2|"D"BcBA "E"F2E2|
"A"AcBA "D"F2F2|"E7"E2E2 "A"A2e2|"A"agae "D"f2ed|"E"c2B2 "A"A2:|
P:B
|:c2|"A"e2cc "E"d2B2|"A"c2A2 "E"B2E2|"A"A2cc "E"B2d2|"A"cde2 "E"B4|
"A"e2cc "E"d2B2|"A"c2A2 "E7"B2e2|"A"agae "D"f2ed|"E"c2B2 "A"A2:|

